assets/images/index/list-9.svg

<svg width="53" height="53" viewBox="0 0 53 53" fill="none" xmlns="http://www.w3.org/2000/svg">
<circle cx="26.5" cy="26.5" r="26.5" fill="white"/>
<path d="M36.5787 16.4253L39.3019 21.129H40.9132L41.7624 18.159C41.9202 17.6065 42 17.034 42 16.4592C42 14.6747 41.2297 12.9777 39.8869 11.8024L37.8271 10H35.0255L33.6532 11.3723L34.68 13.1461L22.1782 20.4748C21.7384 20.7323 21.4268 21.1465 21.301 21.6405C21.1747 22.1345 21.2502 22.6465 21.5124 23.0834C21.7737 23.5194 22.1869 23.8111 22.6456 23.9345V29.8387H21.0223L12.9677 36.3826V39.0323H12V40H42V39.0323H35.7097V37.5806L33.7176 21.6129H32.8065V18.6366L36.5787 16.4253ZM35.4261 10.9677H37.4632L39.2497 12.5306C40.3824 13.5221 41.0323 14.9539 41.0323 16.4592C41.0323 16.9445 40.9645 17.4274 40.8314 17.8939L40.1835 20.1613H39.8594L34.8629 11.531L35.4261 10.9677ZM22.3418 22.586C22.2131 22.3726 22.1768 22.1215 22.2382 21.88C22.3002 21.6385 22.4521 21.4358 22.6679 21.3095L35.1648 13.9837L36.0939 15.5882L23.6052 22.9092C23.1677 23.1656 22.6016 23.019 22.3418 22.586ZM23.6129 23.9413C23.7784 23.8987 23.9405 23.8339 24.0944 23.7434L24.5806 23.4584V29.8387H23.6129V23.9413ZM13.9355 36.8432L21.3653 30.8065H26.0323V32.7419H21.1935V39.0323H19.2581V36.6129H16.3548V39.0323H13.9355V36.8432ZM27 33.7097V39.0323H22.1613V33.7097H27ZM18.2903 39.0323H17.3226V37.5806H18.2903V39.0323ZM32.8065 36.129H31.8387V34.1935H32.8065V36.129ZM32.8065 33.2258H31.8387V31.2903H32.8065V33.2258ZM32.8065 30.3226H31.8387V28.3871H32.8065V30.3226ZM31.8387 27.4194V25.4839H32.8065V27.4194H31.8387ZM31.8387 37.0968H32.8065V39.0323H31.8387V37.0968ZM32.8065 24.5161H31.8387V22.5806H32.8065V24.5161ZM30.871 39.0323H29.9032V37.6106L30.871 29.8687V39.0323ZM34.7419 39.0323H33.7742V29.8687L34.7419 37.6106V39.0323ZM31.8387 21.6129H30.9276L28.9394 37.5206L28.9365 39.0323H27.9677V32.7419H27V29.8387H25.5484V22.8913L31.8387 19.2037V21.6129Z" fill="#DF0112" stroke="#DF0112" stroke-width="0.3"/>
<path d="M19.5926 26.9359C19.5926 27.6533 19.0084 28.2375 18.291 28.2375C17.5735 28.2375 16.9894 27.6533 16.9894 26.9359C16.9894 26.2184 17.5735 25.6343 18.291 25.6343C19.0084 25.6343 19.5926 26.2184 19.5926 26.9359ZM18.9248 26.9359C18.9248 26.5859 18.6409 26.302 18.291 26.302C17.941 26.302 17.6571 26.5859 17.6571 26.9359C17.6571 27.2858 17.941 27.5697 18.291 27.5697C18.6409 27.5697 18.9248 27.2858 18.9248 26.9359Z" fill="#0000FF" stroke="#0000FF" stroke-width="0.3"/>
<path d="M14.7532 30.8065C14.7532 31.524 14.1691 32.1081 13.4516 32.1081C12.7341 32.1081 12.15 31.524 12.15 30.8065C12.15 30.0891 12.7341 29.5049 13.4516 29.5049C14.1691 29.5049 14.7532 30.0891 14.7532 30.8065ZM14.0855 30.8065C14.0855 30.4566 13.8016 30.1727 13.4516 30.1727C13.1017 30.1727 12.8177 30.4566 12.8177 30.8065C12.8177 31.1565 13.1017 31.4404 13.4516 31.4404C13.8016 31.4404 14.0855 31.1565 14.0855 30.8065Z" fill="#0000FF" stroke="#0000FF" stroke-width="0.3"/>
</svg>

<svg width="53" height="53" fill="none" xmlns="http://www.w3.org/2000/svg"><circle cx="26.5" cy="26.5" r="26.5" fill="#fff"/><path d="M36.579 16.425l2.723 4.704h1.611l.85-2.97a6.191 6.191 0 00-1.876-6.357L37.827 10h-2.801l-1.373 1.372 1.027 1.774-12.502 7.329c-.44.257-.751.671-.877 1.165a1.886 1.886 0 001.345 2.294v5.905h-1.624l-8.054 6.544v2.65H12V40h30v-.968h-6.29v-1.451l-1.992-15.968h-.912v-2.976l3.773-2.212zm-1.153-5.457h2.037l1.787 1.563a5.221 5.221 0 011.581 5.363l-.648 2.267h-.324l-4.996-8.63.563-.563zM22.342 22.586a.92.92 0 01-.104-.706.92.92 0 01.43-.57l12.497-7.326.929 1.604-12.489 7.321a.93.93 0 01-1.263-.323zm1.27 1.355a1.81 1.81 0 00.482-.198l.487-.285v6.38h-.968v-5.897zm-9.676 12.902l7.43-6.037h4.666v1.936h-4.838v6.29h-1.936v-2.42h-2.903v2.42h-2.42v-2.189zM27 33.71v5.322h-4.839V33.71H27zm-8.71 5.322h-.967v-1.451h.967v1.451zm14.517-2.903h-.968v-1.935h.968v1.935zm0-2.903h-.968V31.29h.968v1.936zm0-2.903h-.968v-1.936h.968v1.936zm-.968-2.904v-1.935h.968v1.935h-.968zm0 9.678h.968v1.935h-.968v-1.935zm.968-12.58h-.968V22.58h.968v1.935zM30.87 39.031h-.968V37.61l.968-7.742v9.163zm3.87 0h-.967V29.87l.968 7.742v1.421zm-2.902-17.42h-.911L28.938 37.52l-.003 1.511h-.968v-6.29H27v-2.903h-1.452V22.89l6.29-3.687v2.409z" fill="#DF0112" stroke="#DF0112" stroke-width=".3"/><path d="M19.593 26.936c0 .717-.585 1.302-1.302 1.302a1.303 1.303 0 01-1.302-1.302c0-.718.584-1.302 1.302-1.302.717 0 1.302.584 1.302 1.302zm-.668 0a.634.634 0 10-1.268 0 .634.634 0 001.268 0zm-4.172 3.87c0 .718-.584 1.302-1.301 1.302a1.303 1.303 0 01-1.302-1.301c0-.718.584-1.302 1.302-1.302.717 0 1.301.584 1.301 1.302zm-.668 0a.634.634 0 10-1.267 0 .634.634 0 001.268 0z" fill="#00F" stroke="#00F" stroke-width=".3"/></svg>
